X: 9833
T: Dennis And Lynn's
R: jig
M: 6/8
K: Amixolydian
|:A2A Acd|eee gab|age edB|e/f/gb BAG|
GAA Acd|eee gab|age edB|dBg a3:|
|:g2b age|edB dee|Aag afg|efd ecA|
G2b age|ged ggg|age edB|dBg a3:|

